X: 459
P: Longways for as many as will
M: 6/4
L: 1/4
K: C
g |\
e2d c2B | (cG)_B A2a | g2f (ec)e | g3 G2g |\
e2d c2B | (cG)_B A2f | e2d d2c | c3- c2 |]
E2F G2c | (AF)c f2e | dcB A2d | B3- B2g |\
ec2 c'1g | _b3 a2g | fed d2c | c3- c2 |]

